telier/img/about-whatsapp.svg

<svg width="17" height="16" viewBox="0 0 17 16" fill="none" xmlns="http://www.w3.org/2000/svg">
<path fill-rule="evenodd" clip-rule="evenodd" d="M13.7724 2.44103C12.3387 1.00732 10.4271 0.242676 8.4199 0.242676C4.21434 0.242676 0.773437 3.68358 0.773437 7.88914C0.773437 9.22727 1.15577 10.5654 1.82483 11.7124L0.773437 15.5356L4.78784 14.4842C5.93481 15.0577 7.17735 15.44 8.4199 15.44C12.6255 15.44 16.0664 11.9991 16.0664 7.79355C16.0664 5.78636 15.2061 3.87474 13.7724 2.44103ZM8.4199 14.1975C7.27293 14.1975 6.12597 13.9107 5.17016 13.3372L4.97898 13.2417L2.58947 13.9107L3.25854 11.6168L3.06737 11.33C2.3983 10.2787 2.11156 9.13169 2.11156 7.98472C2.11156 4.54381 4.97899 1.67639 8.4199 1.67639C10.1404 1.67639 11.6697 2.34545 12.9122 3.49242C14.1548 4.73497 14.7282 6.26426 14.7282 7.98472C14.7282 11.33 11.9564 14.1975 8.4199 14.1975ZM11.8608 9.41843C11.6696 9.32285 10.7138 8.84494 10.5227 8.84494C10.3315 8.74936 10.2359 8.74936 10.1403 8.94052C10.0448 9.13169 9.66246 9.51401 9.56688 9.70517C9.4713 9.80075 9.37569 9.80075 9.18453 9.80075C8.99337 9.70517 8.41991 9.51401 7.65526 8.84494C7.08178 8.36704 6.69945 7.69797 6.60387 7.50681C6.50829 7.31565 6.60387 7.22007 6.69946 7.12449C6.79504 7.02891 6.8906 6.93333 6.98619 6.83775C7.08177 6.74217 7.08178 6.64659 7.17736 6.55101C7.27294 6.45542 7.17736 6.35984 7.17736 6.26426C7.17736 6.16868 6.79503 5.21287 6.60387 4.83055C6.50829 4.54381 6.31713 4.54381 6.22155 4.54381C6.12597 4.54381 6.03037 4.54381 5.83921 4.54381C5.74362 4.54381 5.55246 4.54381 5.3613 4.73497C5.17014 4.92613 4.69225 5.40404 4.69225 6.35984C4.69225 7.31565 5.36131 8.17588 5.45689 8.36704C5.55247 8.46262 6.79501 10.4698 8.70663 11.2345C10.3315 11.9035 10.6183 11.7124 11.0006 11.7124C11.3829 11.7124 12.1475 11.2345 12.2431 10.8521C12.4343 10.3742 12.4343 9.99191 12.3387 9.99191C12.2431 9.51401 12.052 9.51401 11.8608 9.41843Z" fill="#0047FF"/>
</svg>

<svg width="17" height="16" fill="none" xmlns="http://www.w3.org/2000/svg"><path fill-rule="evenodd" clip-rule="evenodd" d="M13.772 2.441A7.517 7.517 0 008.42.243C4.214.243.773 3.683.773 7.889c0 1.338.383 2.676 1.052 3.823L.773 15.536l4.015-1.052c1.147.574 2.39.956 3.632.956 4.206 0 7.646-3.44 7.646-7.646 0-2.008-.86-3.92-2.294-5.353zM8.42 14.198c-1.147 0-2.294-.287-3.25-.86l-.191-.096-2.39.669.67-2.294-.192-.287a6.149 6.149 0 01-.955-3.345c0-3.441 2.867-6.309 6.308-6.309 1.72 0 3.25.67 4.492 1.816 1.243 1.243 1.816 2.772 1.816 4.493 0 3.345-2.772 6.212-6.308 6.212zm3.44-4.78c-.19-.095-1.146-.573-1.337-.573-.191-.096-.287-.096-.383.096-.095.19-.478.573-.573.764-.096.096-.191.096-.382.096-.192-.096-.765-.287-1.53-.956-.573-.478-.956-1.147-1.051-1.338-.096-.191 0-.287.095-.383l.287-.286c.096-.096.096-.191.191-.287.096-.096 0-.191 0-.287 0-.095-.382-1.051-.573-1.433-.096-.287-.287-.287-.382-.287h-.383c-.095 0-.287 0-.478.191-.19.191-.669.669-.669 1.625s.67 1.816.765 2.007c.095.096 1.338 2.103 3.25 2.867 1.624.67 1.911.478 2.294.478.382 0 1.147-.477 1.242-.86.191-.478.191-.86.096-.86-.096-.478-.287-.478-.478-.574z" fill="#0047FF"/></svg>
